arkscan/icons/ixfi.svg

<svg width="201" height="201" viewBox="0 0 201 201" fill="none" xmlns="http://www.w3.org/2000/svg">
<path d="M54.4066 39.7955C57.3925 40.6153 60.2428 40.752 62.8216 40.2054C66.2147 39.6589 69.7434 40.752 72.1865 43.2114L77.6156 48.6763C80.1944 51.2722 81.4158 55.098 80.6016 58.7868C79.923 62.0659 79.923 65.7552 81.2801 69.5805C83.5875 76.1387 89.288 81.3305 96.0741 82.5604C108.696 84.8828 119.69 75.1824 119.69 62.8857C119.69 61.3827 119.554 59.8801 119.147 58.5137C118.333 54.9615 119.554 51.1357 122.133 48.5398L127.426 43.2114C130.005 40.6153 133.534 39.5223 137.063 40.2054C140.184 40.752 143.577 40.6153 147.242 39.3857C153.893 36.9264 159.05 30.9147 160.136 23.81C162.307 10.0105 150.363 -1.73954 136.52 0.993029C129.734 2.22269 123.762 7.82447 121.726 14.9292C120.64 18.7547 120.776 22.4437 121.726 25.8594C122.811 29.685 121.726 33.7839 118.876 36.5165L114.804 40.6153C112.225 43.2114 108.425 44.5774 104.761 43.6211C103.267 43.2114 101.639 42.9379 100.01 42.9379C98.2454 42.9379 96.6169 43.2114 95.1237 43.6211C91.595 44.5774 87.6591 43.348 85.0803 40.6153L81.4158 36.9264C78.5655 34.0572 77.6156 29.9583 78.7012 26.1327C79.6512 22.717 79.7869 19.028 78.837 15.2024C76.9371 8.09772 71.1009 2.49594 63.9072 1.12966C49.9279 -2.0128 37.8483 9.87388 40.1556 23.81C41.3772 31.4612 47.0776 37.7461 54.4066 39.7955ZM147.513 161.668C143.984 160.439 140.456 160.166 137.334 160.848C133.805 161.532 130.277 160.302 127.698 157.843L122.404 152.514C119.826 149.918 118.604 146.093 119.418 142.54C119.69 141.174 119.962 139.671 119.962 138.168C119.962 125.871 108.968 116.171 96.3455 118.494C89.5594 119.723 83.8589 124.915 81.5515 131.473C80.1944 135.299 80.0587 138.851 80.873 142.267C81.6872 145.956 80.6016 149.645 77.887 152.377L72.458 157.843C70.0148 160.302 66.4861 161.532 63.093 160.848C60.3785 160.439 57.5282 160.439 54.678 161.258C47.3491 163.308 41.5129 169.593 40.2913 177.107C37.9841 191.043 50.1993 202.93 64.0429 200.061C71.1009 198.558 77.0728 192.956 78.9727 185.988C79.923 182.163 79.923 178.337 78.837 175.058C77.7513 171.232 78.837 167.133 81.5515 164.264L85.216 160.575C87.7948 157.979 91.595 156.613 95.2594 157.569C96.8883 157.979 98.5172 158.252 100.146 158.252C101.775 158.252 103.403 157.979 104.896 157.569C108.425 156.613 112.225 157.843 114.94 160.575L119.011 164.674C121.726 167.407 122.811 171.505 121.862 175.331C120.912 178.61 120.912 182.436 121.862 186.261C123.762 193.366 129.869 198.831 136.927 200.197C150.771 202.93 162.714 191.18 160.543 177.38C159.321 170.139 154.164 164.127 147.513 161.668ZM40.2913 138.031C39.7485 134.616 40.8343 131.064 43.2773 128.604L48.7061 123.139C51.2849 120.543 55.0851 119.314 58.75 120.133C62.0074 120.816 65.6718 120.816 69.472 119.45C75.9867 117.127 81.1444 111.389 82.3657 104.557C84.6731 91.8511 75.0368 80.7843 62.8216 80.7843C61.3284 80.7843 59.8357 80.9209 58.4786 81.3305C54.9494 82.1503 51.1492 80.9209 48.5704 78.325L43.2773 72.9962C40.6986 70.4003 39.6127 66.8481 40.2913 63.2958C40.8343 60.1533 40.6986 56.7376 39.477 53.0484C37.034 46.3536 31.0621 41.1618 24.0045 40.0688C10.2963 37.7461 -1.37594 49.7692 1.33854 63.5689C2.69578 70.8104 8.26045 76.822 15.1824 78.7347C18.9827 79.8276 22.6472 79.691 26.0403 78.7347C29.8406 77.6418 33.9123 78.7347 36.6268 81.6041L40.6986 85.7026C43.2773 88.2989 44.6345 92.1242 43.6846 95.8135C43.2773 97.316 43.0058 98.9556 43.0058 100.595C43.0058 102.371 43.2773 104.011 43.6846 105.514C44.6345 109.066 43.413 113.028 40.6986 115.624L37.034 119.314C34.1838 122.183 30.112 123.139 26.3118 122.046C22.9187 121.09 19.2541 120.953 15.4539 121.909C8.3962 123.822 2.83151 129.697 1.47427 136.939C-1.37594 151.011 10.432 163.171 24.2759 160.848C31.7408 159.619 38.1198 153.744 40.0199 146.366C40.6986 143.633 40.8343 140.764 40.2913 138.031ZM199.089 137.075C197.596 129.97 192.031 123.959 185.109 122.046C181.309 121.09 177.508 121.09 174.251 122.183C170.451 123.275 166.379 122.183 163.529 119.45L159.864 115.761C157.286 113.165 155.928 109.34 156.879 105.65C157.286 104.011 157.557 102.371 157.557 100.732C157.557 99.0922 157.286 97.453 156.879 95.95C155.928 92.3974 157.15 88.572 159.864 85.8396L163.936 81.7407C166.651 79.0078 170.722 77.9149 174.522 78.8712C177.78 79.8275 181.58 79.8275 185.381 78.8712C192.438 76.9585 197.867 70.8104 199.224 63.7055C201.939 49.7692 190.266 37.7461 176.558 39.9322C169.501 41.0252 163.529 46.217 161.086 52.9118C159.864 56.464 159.593 60.0167 160.272 63.1588C160.95 66.7115 159.728 70.2637 157.286 72.8596L151.992 78.188C149.414 80.7843 145.613 82.0138 142.085 81.194C140.727 80.9209 139.234 80.6473 137.741 80.6473C125.526 80.6473 115.89 91.7146 118.197 104.421C119.418 111.252 124.576 116.991 131.091 119.314C134.891 120.68 138.42 120.816 141.813 119.996C145.478 119.177 149.142 120.27 151.857 123.002L157.286 128.468C159.728 130.927 160.95 134.479 160.272 137.895C159.864 140.627 159.864 143.497 160.679 146.366C162.714 153.744 168.958 159.619 176.423 160.848C190.266 163.308 202.074 151.148 199.089 137.075Z" fill="url(#paint0_linear_9357_31651)"/>
<defs>
<linearGradient id="paint0_linear_9357_31651" x1="39.4193" y1="54.107" x2="659.318" y2="151.124" gradientUnits="userSpaceOnUse">
<stop offset="4.1024e-07" stop-color="#373ECC"/>
<stop offset="0.0119012" stop-color="#423DD1"/>
<stop offset="0.0482816" stop-color="#5C3BDF"/>
<stop offset="0.0881379" stop-color="#7139EA"/>
<stop offset="0.1327" stop-color="#8038F1"/>
<stop offset="0.1857" stop-color="#8837F6"/>
<stop offset="0.2689" stop-color="#8B37F7"/>
<stop offset="0.3633" stop-color="#B147E1"/>
<stop offset="0.5303" stop-color="#FD66B5"/>
<stop offset="0.6895" stop-color="#FB6E80"/>
<stop offset="0.7944" stop-color="#FA7262"/>
<stop offset="1" stop-color="#FFBB4D"/>
</linearGradient>
</defs>
</svg>

<svg width="201" height="201" fill="none" xmlns="http://www.w3.org/2000/svg"><path d="M54.407 39.795c2.986.82 5.836.957 8.415.41 3.393-.546 6.921.547 9.364 3.006l5.43 5.465c2.578 2.596 3.8 6.422 2.986 10.11-.679 3.28-.679 6.97.678 10.794 2.308 6.559 8.008 11.75 14.794 12.98 12.622 2.323 23.616-7.378 23.616-19.674 0-1.503-.136-3.006-.543-4.372-.814-3.553.407-7.378 2.986-9.974l5.293-5.329c2.579-2.596 6.108-3.689 9.637-3.006 3.121.547 6.514.41 10.179-.82 6.651-2.459 11.808-8.47 12.894-15.575 2.171-13.8-9.773-25.55-23.616-22.817-6.786 1.23-12.758 6.831-14.794 13.936-1.086 3.826-.95 7.515 0 10.93 1.085 3.826 0 7.925-2.85 10.657l-4.072 4.1c-2.579 2.595-6.379 3.961-10.043 3.005-1.494-.41-3.122-.683-4.751-.683-1.765 0-3.393.273-4.886.683-3.529.956-7.465-.273-10.044-3.006l-3.664-3.689c-2.85-2.869-3.8-6.968-2.715-10.793.95-3.416 1.086-7.105.136-10.93-1.9-7.105-7.736-12.707-14.93-14.073-13.98-3.143-26.059 8.744-23.751 22.68 1.221 7.651 6.922 13.936 14.25 15.985Zm93.106 121.873c-3.529-1.229-7.057-1.502-10.179-.82-3.529.684-7.057-.546-9.636-3.005l-5.294-5.329c-2.578-2.596-3.8-6.421-2.986-9.974.272-1.366.544-2.869.544-4.372 0-12.297-10.994-21.997-23.617-19.674-6.786 1.229-12.486 6.421-14.793 12.979-1.358 3.826-1.493 7.378-.679 10.794.814 3.689-.271 7.378-2.986 10.11l-5.429 5.466c-2.443 2.459-5.972 3.689-9.365 3.005-2.715-.409-5.565-.409-8.415.41-7.329 2.05-13.165 8.335-14.387 15.849-2.307 13.936 9.908 25.823 23.752 22.954 7.058-1.503 13.03-7.105 14.93-14.073.95-3.825.95-7.651-.136-10.93-1.086-3.826 0-7.925 2.715-10.794l3.664-3.689c2.579-2.596 6.379-3.962 10.043-3.006 1.63.41 3.258.683 4.887.683 1.629 0 3.257-.273 4.75-.683 3.529-.956 7.329.274 10.044 3.006l4.071 4.099c2.715 2.733 3.8 6.831 2.851 10.657-.95 3.279-.95 7.105 0 10.93 1.9 7.105 8.007 12.57 15.065 13.936 13.844 2.733 25.787-9.017 23.616-22.817-1.222-7.241-6.379-13.253-13.03-15.712ZM40.291 138.031c-.542-3.415.543-6.967 2.986-9.427l5.43-5.465c2.578-2.596 6.378-3.825 10.043-3.006 3.257.683 6.922.683 10.722-.683 6.515-2.323 11.672-8.061 12.894-14.893 2.307-12.706-7.33-23.773-19.544-23.773-1.494 0-2.986.137-4.343.546-3.53.82-7.33-.41-9.909-3.005l-5.293-5.329c-2.578-2.596-3.664-6.148-2.986-9.7.543-3.143.408-6.558-.814-10.248-2.443-6.694-8.415-11.886-15.472-12.98-13.709-2.322-25.38 9.701-22.666 23.5C2.696 70.81 8.26 76.823 15.182 78.736c3.8 1.093 7.465.956 10.858 0 3.8-1.093 7.872 0 10.587 2.87l4.072 4.098c2.578 2.596 3.936 6.421 2.986 10.11-.408 1.503-.68 3.143-.68 4.782 0 1.776.272 3.416.68 4.919.95 3.552-.272 7.514-2.986 10.11l-3.665 3.69c-2.85 2.869-6.922 3.825-10.722 2.732-3.393-.956-7.058-1.093-10.858-.137-7.058 1.913-12.622 7.788-13.98 15.03-2.85 14.072 8.958 26.232 22.802 23.909 7.465-1.229 13.844-7.104 15.744-14.482.679-2.733.814-5.602.271-8.335Zm158.798-.956c-1.493-7.105-7.058-13.116-13.98-15.029-3.8-.956-7.601-.956-10.858.137-3.8 1.092-7.872 0-10.722-2.733l-3.665-3.689c-2.578-2.596-3.936-6.421-2.985-10.111.407-1.639.678-3.279.678-4.918 0-1.64-.271-3.279-.678-4.782-.951-3.553.271-7.378 2.985-10.11l4.072-4.1c2.715-2.732 6.786-3.825 10.586-2.869 3.258.957 7.058.957 10.859 0 7.057-1.912 12.486-8.06 13.843-15.165 2.715-13.937-8.958-25.96-22.666-23.774-7.057 1.093-13.029 6.285-15.472 12.98-1.222 3.552-1.493 7.105-.814 10.247.678 3.553-.544 7.105-2.986 9.7l-5.294 5.329c-2.578 2.596-6.379 3.826-9.907 3.006-1.358-.273-2.851-.547-4.344-.547-12.215 0-21.851 11.068-19.544 23.774 1.221 6.831 6.379 12.57 12.894 14.893 3.8 1.366 7.329 1.502 10.722.682 3.665-.819 7.329.274 10.044 3.006l5.429 5.466c2.442 2.459 3.664 6.011 2.986 9.427-.408 2.732-.408 5.602.407 8.471 2.035 7.378 8.279 13.253 15.744 14.482 13.843 2.46 25.651-9.7 22.666-23.773Z" fill="url(#a)"/><defs><linearGradient id="a" x1="39.419" y1="54.107" x2="659.318" y2="151.124" gradientUnits="userSpaceOnUse"><stop offset="0" stop-color="#373ECC"/><stop offset=".012" stop-color="#423DD1"/><stop offset=".048" stop-color="#5C3BDF"/><stop offset=".088" stop-color="#7139EA"/><stop offset=".133" stop-color="#8038F1"/><stop offset=".186" stop-color="#8837F6"/><stop offset=".269" stop-color="#8B37F7"/><stop offset=".363" stop-color="#B147E1"/><stop offset=".53" stop-color="#FD66B5"/><stop offset=".69" stop-color="#FB6E80"/><stop offset=".794" stop-color="#FA7262"/><stop offset="1" stop-color="#FFBB4D"/></linearGradient></defs></svg>
